X: 25626
T: Martha's
R: waltz
M: 3/4
K: Dmajor
"D"f6|"A7"e6|"D"d4A2|"D"F2A2d2|"G"g6|"G"g2a2g2|"D"f6|"A7"e6|
"D"f6|"A7"e6|"D"d2f2a2|"G"g6|"D"f2g2f2|"A7"e2d2c2|"D"d6-|"D"d4z2:|
"D"F6|"D"F2G2A2|"G"B4G2|"A7"E6|"A7"E6|"A7"E2F2G2|"A7"A6|"A7"A2B2c2|
"D"d6|"A7"e6|"D"f2g2a2|"G"g6|"D"f2g2f2|"A7"e2d2c2|"D"d6-|"D"d6:|

